X:1
T:Es seyn die heiligen
T:Georg Vogler
T:Source : Catechismus---Würzburg---J.Volmari---1652. Editor : André Vierendeels (24/09/17).
T:Notes : Original clefs : C1, F4 Original nore values have been halved Text Middle German
T:Es seyn die heiligen
T:©
T:©
C:Georg Vogler
Z:©
%%score [ 1 2 ]
L:1/8
Q:1/4=120
M:2/2
K:C
V:1 treble nm="Soprano" snm="S"
V:2 bass nm="Bass" snm="B"
V:1
"^1)" B4 E2 B2 | c2 B2 G2 A2 | B4 B4 | c4 d2 c2 | B4 G2 F2 | !fermata!E4 A4 | G2 c2 B4 | A2 d4 c2 | %8
w: Es seyn die|hei- lgen Sa- cra-|ment, Sicht-|bar- li- che|Zei- chen ge-|nennt, so|von Gott selb-|sten or- *|
w: Der Tauff, die|Con- fir ma- ti-|on, das|dritt Chri- sti|Fron- leich- namb|schon: Das|vierdt die Busz|mit rech- *|
 B8 | A8 | c4 B2 G2 | A2 c2 c2 B2 | !fermata!c4 c4 | B2 c2 d2 G2 | Bc A2 G4 | G4 c2 B2 | %16
w: di-|nirt,|dar- durch die|Gnad emp- fan- gen|wird, de-|ren seyn Sie- ben|an _ der Zahl,|da- für ich|
w: ter|Beicht,|das fünfft die|letz- te Oe- lung|reicht, das|sech- ste die Prie-|* * ster- weyh,|das sie- bend|
 A2 E2 G2 F2 | E8 |] %18
w: danck Gott tau- send-|mal.|
w: dann der Chest and|sey.|
V:2
"^2)""^1)""^3)" E,4 E,2 E,2 | C,2 G,,2 C,2 A,,2 | E,4 E,4 | C,4 B,,2 A,,2 | G,,4 C,2 D,2 | %5
w: Es seyn die|leil- gen Sa- dra-|ment, Sicht-|bar- li- che|Zei- chen ge-|
w: Nun frag ich|dich, was ist die|Tauff, da|gib fer- tig|Ant- * wordt|
 !fermata!A,,4 A,,4 | E,2 C,2 E,4 | F,2 D,4 A,,2 | E,8 | A,,8 | A,4 G,2 E,2 | D,2 E,2 F,2 G,2 | %12
w: nennt, so|von Gott selb-|sten or- *|di-|nirt,|dar- duch die|Gnad emp- fan- gen|
w: drauff? Die|Tauff ist das|erst Sa- *|cra-|ment,|und das noth-|wen- digst zu em|
 C,4 A,,4 | E,2 C,2 G,2 E,2- | E,C, D,2 G,,4 | G,,4 C,2 C,2 | A,,2 C,2 B,,2 D,2 | E,8 |] %18
w: wird, de-|ren seun Sie- ben|_ an der Zahl,|¨da- für ich|danck Gott tau- send-|mal.|
w: End, dasz|durchs Was- ser und|_ Got- tes Wort,|der Mensch ge-|ei- nigt werd all-|dort|

